X: 20377
T: John Crowley's
R: slide
M: 12/8
K: Gmajor
|:d2B d2e d2B G2B|ABA DFA f2e d2B|
d2B d2e d2B G2B|1 ABA DFA G3 G2B:|2 ABA DFA G3 GBd||
|:g3 gfg a2f def|g3 def g3 a3|
g3 gfg a2f def|1 g2g agf g3 g2d:|2 g2g agf g3 g2e||

